X:1
T:Crucis Victoria, CM
T:Crucis Victoria, CM
T:Myles Birket Foster, 1889
T:Public Domain Courtesy of the Cyber Hymnal™
C:Myles Birket Foster, 1889
Z:Public Domain
Z:Courtesy of the Cyber Hymnal™
%%score ( 1 2 ) ( 3 4 )
L:1/8
Q:1/4=108
M:4/4
K:E
V:1 treble 
V:2 treble 
V:3 bass 
V:4 bass 
V:1
 E2 | [EG]2 [EA]2 [DB]2 [EG]2 | [EA]2 [=DB]2 [Cc]2 [^DB]2 | [EB]2 [Ec]2 A2 [EG]2 | [DF]6 [DF]2 | %5
 [EG]2 [Gc]2 [F^A]2 [FB]2 | [Gc]2 [Fe]2 [Fd]2 [DB]2 | [Ee]2 (BA) [EG]2 [DF]2 x | E6 |] %9
V:2
 E2 | x8 | x8 | x4 (CD) x2 | x8 | x8 | x8 | x2 E2 x5 | E6 |] %9
V:3
 [E,G,]2 | [E,B,]2 [C,E,]2 [B,,F,]2 [E,G,]2 | [C,E,]2 (F,G,) [A,,A,]2 [A,B,]2 | %3
 [G,B,]2 [E,G,]2 [F,A,]2 ([G,B,][A,C]) | [B,D]6 [B,,B,]2 | [E,B,]2 [C,E]2 [F,C]2 [D,B,]2 | %6
 [E,B,]2 [F,^A,]2 B,2 B,2 | [G,B,]2 ([G,,B,][A,,C]) B,3 z A, | [E,G,]6 |] %9
V:4
 x2 | x8 | x2 B,,2 x4 | x8 | x8 | x8 | x4 B,2 (B,^A,) | x4 B,,2 B,,2 x | x6 |] %9

